public/avatar/hat/226.svg

<svg xmlns:xlink="http://www.w3.org/1999/xlink" height="92.9" width="100.7" xmlns="http://www.w3.org/2000/svg"><use height="22" transform="translate(15 41.9)" width="42.9" xlink:href="#a"/><defs><g id="a"><path d="M3.45-7.85q3.1 0 4.7.8 1.75 1 2.65 2.4l.05.05 1.4 1.8.3.75q.15.35.45.65l.5.5.7.1.85-.2 1.3.25 1.45.7L18.9 1l.3 1.05v.55l-.2.5-.55.9-.35.7q-.1.25.1.5l.2.05q.45.15.6.4.45.45.05 1.5L18.2 8.5l-1.55 1-2.15.3q.7 1.7.05 2.1-.6.45-1.1 0l-.2-.35v-.15l.1.15-.5-.7-.65-.8-1.55-1.45q-1.5-1-4-1.3l-2.5-.15L.8 7.3l-4.15.45-3.65.7q-1.9.55-3.15 1.2-1 .55-2.5 2.25l-1.1 1.65q-.4.7-1 .6-.95-.1-.85-.95l.2-1-.7-.75-1.05-.65-3.05-.75q-2.35-.3-3.05-1.65-.95-1.55.3-3.75.85-1.45 3.3-2.35l3.5-.95.7-.3.5-.65 1.1-1.55.9-1.45.85-1.3q1.3-1.45 3.15-2l1.6-.2 1.7.05 3 .45q.85-.35 2.4-1.35 1.65-.8 3.7-.9" fill="#020000" fill-rule="evenodd" transform="translate(23.65 7.85)"/><path d="M11.05 4.5q2.05 3.5 3.1 7.25Q7.5 7-4.75 10.35q-3.1.8-7.45 2.5-2.8 1.1-2.6.7.5-.8.45-3.2 0-2.1-.3-3.25-.2-.65.55-1.5.65-.75 1.45-1l4.5-1.95q1.95-2.2 10.05-4Q6.95-2.5 11.05 4.5" fill="#7c7c7c" fill-rule="evenodd" transform="translate(23.65 7.85)"/><path d="M10.45 4.8q2.1 3.1 3.25 6.4Q9 5.9-3.45 9.35q-3.25.9-7.8 2.7-3.1 1.2-2.9.9 1.25-2.05.15-5.8-.45-1.6 1.9-2.25l4.2-1.75q1.85-2 9.5-3.6 4.7-.95 8.85 5.25" fill="#fff" fill-rule="evenodd" transform="translate(23.65 7.85)"/><path d="m-17.45 10.05-.35-.05.15-.05.35.05-.15.05m29.4-3.55 1.4 1.45.6 1.05.2.25q-.4.3-.5.9l-.25.7-.8-.85-1.2-.05-1.45.65-1.5.2Q3.7 11 1.7 9.55.25 8.6-.15 8.05q-.55-.85-2-1.65-.8-.5-3-.4l-1.95.45-2.85 1.3Q-12.15 8.9-13.2 10l-.45.6-.65 1.4-.05-.05q-.3-1-1.4-1.25-.65-.4-1-.45l-.55-.25 1-.5.7-1.75.7-1.7 1.35-1.6q2.8-2.15 5.05-2.9L-4.9 1l3.9.45L4.25 2.7q1.75.4 4.5 1.95l3.2 1.85" fill="#b7b7b7" fill-rule="evenodd" transform="translate(23.65 7.85)"/><path d="m10.2 10.6-1.05.3-3.8.4L4 11.1Q2.15 10.65.95 9.3L-1.4 6.45l-1.2-1.1-1.3-.7-1.4-.3-1.45-.1-1.45.1q-.6.15-1.95.85-.3.25-.55.3l-.6.5-1.25 1.2-.85 1.25-.35 1.2-.55 2.65q-.3.25-.7-.3l-.45-.5q-.35-.3-.3-.8l.25-2 .75-2.65.65-1.15q.3-.4 1.1-.9 1.65-1.15 3.35-1.45L-6 2.3l3.35.45q1.7.65 2.75 2.5l.65.9.5.5 2.65.05 1.2.25 3.75.7 5.3.8.45.2-.3.45-.2.25q.35 2.2.15 2.35l-.95-.1q-1.05-1.55-1.35-1.55l-1.75.55" fill="#5e5e5e" fill-rule="evenodd" transform="translate(23.65 7.85)"/><path d="M1.75-6.5q3.95-.75 6.4.7l1.95 1.95.9 1.6q.9 2.2 1.7 2.3l2 .15q1.25.3 1.8.8.75.6.95 1.65L17.2 4.2l-.15.75.35.6q.75.9.6 1.4l-.95 1.15q-.7.55-1.55.55-2.25 1.45-3.05-.15-.1-.3-1 .6-1 .95-2.5.95l-3.25.15q-2.5-.35-3-.7-.95-.55-2.25-2.25L-.6 5.9l-1.05-.95Q-3.3 3.5-4 3.3l-1.4-.1-1.5.25-3.35.8-1.4.6-1.25.8q-.6.5-.75 1.25-.75 2.5-.75 5v.05l-.15-.1q-2.2-1.8-2.45-1.8-2.5-.2-3.6-.85-1.95-1.2-1.2-3.05l.75-1.6q.55-.75 1.9-1.35 1.1-.55 3.55-1l1.3-1.3 1.45-1.65 1.3-1.7 1.15-1.35q1.55-1.55 4.5-1.55l1.6.45 1.6.05q1.55-.45 4.45-1.65" fill="#fdfdfd" fill-rule="evenodd" transform="translate(23.65 7.85)"/><path d="M25.4 1.35Q22.5 2.55 20.95 3l-1.6-.05-1.6-.45q-2.95 0-4.5 1.55L12.1 5.4l-1.3 1.7-1.45 1.65-1.3 1.3q-2.45.45-3.55 1-1.35.6-1.9 1.35L1.85 14q-.75 1.85 1.2 3.05 1.1.65 3.6.85.25 0 2.45 1.8l.15.1v-.05q0-2.5.75-5 .15-.75.75-1.25l1.25-.8 1.4-.6 3.35-.8 1.5-.25 1.4.1q.7.2 2.35 1.65l1.05.95 1.05 1.35q1.3 1.7 2.25 2.25.5.35 3 .7l3.25-.15q1.5 0 2.5-.95.9-.9 1-.6.8 1.6 3.05.15.85 0 1.55-.55l.95-1.15q.15-.5-.6-1.4l-.35-.6.15-.75.25-1.55q-.2-1.05-.95-1.65-.55-.5-1.8-.8l-2-.15q-.8-.1-1.7-2.3l-.9-1.6-1.95-1.95q-2.45-1.45-6.4-.7Z" fill="none" stroke="#a0a0a0" stroke-linecap="round" stroke-linejoin="round" stroke-width=".25"/><path d="M3.2-4.7q1.15.75-.8 2.4Q1.05-1.25-.65-1.1l-1.3-.2q-.75-.45-1.15-.55-.75-.25-1.3 1.6-.3 1-1.2 1.9L-6.8 2.7q-1 .9-1.35.85v-.1q2.05-.7 2.95-3.3l.5-1.65q.25-.9.2-1.3l-.5-1 2.2-.45 2.85-.6 3.15.15m-15.45 7.75q-.25 1-1.3 1.55-1.45.85-.95 1.4 1 .75.55 1v-.1l-.3-.2-.7-.2-1.55-.4q-.9-.7-.75-2.05l.65-.7 1.05-.3 1.95-1.1q.65-.2 1.05.15.45.35.3.95M5.6 4.8q.1-.6-.3-1.2Q4.35 2.25.65 2.25l-1.9.3.6-.25q2.75-.9 4.75-.05Q7.25 3.5 7.75 4.9q.95 2.5-.85 4-1 .85-2.2.85-1.2 0-2.2-.65Q1.1 8.4.95 7.7.7 6.4 2.2 5.95l2.5-.3q.75-.15.9-.85m-9.3-1.45v.05l-.2-.05h.2" fill="#ddd" fill-rule="evenodd" transform="translate(23.65 7.85)"/><path d="M5.9-.9q1.6.1 2.25-.3l1.15-.1.85.55L11.5.6l2.4.65q1.7.3 1.55 1.1-.25 1.05-1.8 1.55-2.35.8-4.9-1.85Q7.8.85 7.15.4 6.35-.15 5-.35 3.1-.6.05.65q-.5.2-1.85 1.3l-.95.65q-.7.55-.85.55l.7-.8q.45-.45 1.15-.8l3-1.85Q2.2-.8 3.5-.95l2.4.05" fill="#ddd" fill-rule="evenodd" transform="translate(23.65 7.85)"/><path d="M-15.35 3.4q.1.4-.65 1.05l-.5.55-.2.65q.05.4.8.55l1.1.25q.3.05.55.25l.3.35v.4q-.2-.65-2.3-.95-1.15-.2-1.65-.6-.85-.75-.25-1.7.45-.75 1.4-1.05 1.2-.35 1.4.25M6.45 3l1.5 1.6q.55 1 .1 2.35-.25.85-1.3 1.9-.6.6-1.55.4Q3.95 9 3.65 8.2q-.2-.65 1.05-.65 2.4 0 2.8-.85l.05-1.5q-.05-.7-.85-1.4-1.05-1-2.7-1.4L1.9 2l-2.15.15h-.1l.4-.1 1.9-.25q2.75 0 4.5 1.2M5.6-1.1l1.55.2.85-.9q.65-.4 1.45 0l1.05 1q.5.8-.3 1.15Q9.4.7 7-.4L2.5-.6.15.55l-2.4 1.6-.6.5.8.1-1.65.6-.6-.3 1.05-.8 1.6-1.05Q.15-.05 1.1-.45l1.35-.4L4-1.2l1.6.1M-5.15-3.2l-.1-.75.7-.3 1.55.1q1.15 0 1.15.7 0 .8-1.2 1.05-1.15.1-1.25.45l-.25.85v.25l-.1.45q-.1 1-.65 1.7l-1.35 1.4-.35.15-.45.65-1.15.2-.7.25q.2-.55 1.3-.9l1.5-1.2q.8-.9 1.15-1.8l.45-1.45.1-.45-.05-.4-.3-.95" fill="#b7b7b7" fill-rule="evenodd" transform="translate(23.65 7.85)"/></g></defs></svg>

<?xml version="1.0" encoding="UTF-8" standalone="no"?>
<svg xmlns:xlink="http://www.w3.org/1999/xlink" height="92.9px" width="100.7px" xmlns="http://www.w3.org/2000/svg">
  <g transform="matrix(1.0, 0.0, 0.0, 1.0, 38.65, 49.75)">
    <use height="22.0" transform="matrix(1.0, 0.0, 0.0, 1.0, -23.65, -7.85)" width="42.9" xlink:href="#shape0"/>
  </g>
  <defs>
    <g id="shape0" transform="matrix(1.0, 0.0, 0.0, 1.0, 23.65, 7.85)">
      <path d="M3.45 -7.85 Q6.55 -7.85 8.15 -7.05 9.9 -6.05 10.8 -4.65 L10.85 -4.6 12.25 -2.8 12.55 -2.05 Q12.7 -1.7 13.0 -1.4 L13.5 -0.9 14.2 -0.8 15.05 -1.0 16.35 -0.75 17.8 -0.05 18.9 1.0 19.2 2.05 19.2 2.6 19.0 3.1 18.45 4.0 18.1 4.7 Q18.0 4.95 18.2 5.2 L18.4 5.25 Q18.85 5.4 19.0 5.65 19.45 6.1 19.05 7.15 L18.2 8.5 16.65 9.5 14.5 9.8 Q15.2 11.5 14.55 11.9 13.95 12.35 13.45 11.9 L13.25 11.55 13.25 11.4 13.35 11.55 12.85 10.85 12.2 10.05 10.65 8.6 Q9.15 7.6 6.65 7.3 L4.15 7.15 0.8 7.3 -3.35 7.75 -7.0 8.45 Q-8.9 9.0 -10.15 9.65 -11.15 10.2 -12.65 11.9 L-13.75 13.55 Q-14.15 14.25 -14.75 14.15 -15.7 14.05 -15.6 13.2 L-15.4 12.2 -16.1 11.45 -17.15 10.8 -20.2 10.05 Q-22.55 9.75 -23.25 8.4 -24.2 6.85 -22.95 4.65 -22.1 3.2 -19.65 2.3 L-16.15 1.35 -15.45 1.05 -14.95 0.4 -13.85 -1.15 -12.95 -2.6 -12.1 -3.9 Q-10.8 -5.35 -8.95 -5.9 L-7.35 -6.1 -5.65 -6.05 -2.65 -5.6 Q-1.8 -5.95 -0.25 -6.95 1.4 -7.75 3.45 -7.85" fill="#020000" fill-rule="evenodd" stroke="none"/>
      <path d="M11.05 4.5 Q13.1 8.0 14.15 11.75 7.5 7.0 -4.75 10.35 -7.85 11.15 -12.2 12.85 -15.0 13.95 -14.8 13.55 -14.3 12.75 -14.35 10.35 -14.35 8.25 -14.65 7.1 -14.85 6.45 -14.1 5.6 -13.45 4.85 -12.65 4.6 L-8.15 2.65 Q-6.2 0.45 1.9 -1.35 6.95 -2.5 11.05 4.5" fill="#7c7c7c" fill-rule="evenodd" stroke="none"/>
      <path d="M10.45 4.8 Q12.55 7.9 13.7 11.2 9.0 5.9 -3.45 9.35 -6.7 10.25 -11.25 12.05 -14.35 13.25 -14.15 12.95 -12.9 10.9 -14.0 7.15 -14.45 5.55 -12.1 4.9 L-7.9 3.15 Q-6.05 1.15 1.6 -0.45 6.3 -1.4 10.45 4.8" fill="#ffffff" fill-rule="evenodd" stroke="none"/>
      <path d="M-17.45 10.05 L-17.8 10.0 -17.65 9.95 -17.3 10.0 -17.45 10.05 M11.95 6.5 L13.35 7.95 13.95 9.0 14.15 9.25 Q13.75 9.55 13.65 10.15 L13.4 10.85 12.6 10.0 11.4 9.95 9.95 10.6 8.45 10.8 Q3.7 11.0 1.7 9.55 0.25 8.6 -0.15 8.05 -0.7 7.2 -2.15 6.4 -2.95 5.9 -5.15 6.0 L-7.1 6.45 -9.95 7.75 Q-12.15 8.9 -13.2 10.0 L-13.65 10.6 -14.3 12.0 -14.35 11.95 Q-14.65 10.95 -15.75 10.7 -16.4 10.3 -16.75 10.25 L-17.3 10.0 -16.3 9.5 -15.6 7.75 -14.9 6.05 -13.55 4.45 Q-10.75 2.3 -8.5 1.55 L-4.9 1.0 -1.0 1.45 4.25 2.7 Q6.0 3.1 8.75 4.65 L11.95 6.5" fill="#b7b7b7" fill-rule="evenodd" stroke="none"/>
      <path d="M10.2 10.6 L9.15 10.9 5.35 11.3 4.0 11.1 Q2.15 10.65 0.95 9.3 L-1.4 6.45 -2.6 5.35 -3.9 4.65 -5.3 4.35 -6.75 4.25 -8.2 4.35 Q-8.8 4.5 -10.15 5.2 -10.45 5.45 -10.7 5.5 L-11.3 6.0 -12.55 7.2 -13.4 8.45 -13.75 9.65 -14.3 12.3 Q-14.6 12.55 -15.0 12.0 L-15.45 11.5 Q-15.8 11.2 -15.75 10.7 L-15.5 8.7 -14.75 6.05 -14.1 4.9 Q-13.8 4.5 -13.0 4.0 -11.35 2.85 -9.65 2.55 L-6.0 2.3 -2.65 2.75 Q-0.95 3.4 0.1 5.25 L0.75 6.15 1.25 6.65 3.9 6.7 5.1 6.95 8.85 7.65 14.15 8.45 14.6 8.65 14.3 9.1 14.1 9.35 Q14.45 11.55 14.25 11.7 L13.3 11.6 Q12.25 10.05 11.95 10.05 L10.2 10.6" fill="#5e5e5e" fill-rule="evenodd" stroke="none"/>
      <path d="M1.75 -6.5 Q5.7 -7.25 8.15 -5.8 L10.1 -3.85 11.0 -2.25 Q11.9 -0.05 12.7 0.05 L14.7 0.2 Q15.95 0.5 16.5 1.0 17.25 1.6 17.45 2.65 L17.2 4.2 17.05 4.95 17.4 5.55 Q18.15 6.45 18.0 6.95 L17.05 8.1 Q16.35 8.65 15.5 8.65 13.25 10.1 12.45 8.5 12.35 8.2 11.45 9.1 10.45 10.05 8.95 10.05 L5.7 10.2 Q3.2 9.85 2.7 9.5 1.75 8.95 0.45 7.25 L-0.6 5.9 -1.65 4.95 Q-3.3 3.5 -4.0 3.3 L-5.4 3.2 -6.9 3.45 -10.25 4.25 -11.65 4.85 -12.9 5.65 Q-13.5 6.15 -13.65 6.9 -14.4 9.4 -14.4 11.9 L-14.4 11.95 -14.55 11.85 Q-16.75 10.05 -17.0 10.05 -19.5 9.85 -20.6 9.2 -22.55 8.0 -21.8 6.15 L-21.05 4.55 Q-20.5 3.8 -19.15 3.2 -18.05 2.65 -15.6 2.2 L-14.3 0.9 -12.85 -0.75 -11.55 -2.45 -10.4 -3.8 Q-8.85 -5.35 -5.9 -5.35 L-4.3 -4.9 -2.7 -4.85 Q-1.15 -5.3 1.75 -6.5" fill="#fdfdfd" fill-rule="evenodd" stroke="none"/>
      <path d="M1.75 -6.5 Q-1.15 -5.3 -2.7 -4.85 L-4.3 -4.9 -5.9 -5.35 Q-8.85 -5.35 -10.4 -3.8 L-11.55 -2.45 -12.85 -0.75 -14.3 0.9 -15.6 2.2 Q-18.05 2.65 -19.15 3.2 -20.5 3.8 -21.05 4.55 L-21.8 6.15 Q-22.55 8.0 -20.6 9.2 -19.5 9.85 -17.0 10.05 -16.75 10.05 -14.55 11.85 L-14.4 11.95 -14.4 11.9 Q-14.4 9.4 -13.65 6.9 -13.5 6.15 -12.9 5.65 L-11.65 4.85 -10.25 4.25 -6.9 3.45 -5.4 3.2 -4.0 3.3 Q-3.3 3.5 -1.65 4.95 L-0.6 5.9 0.45 7.25 Q1.75 8.95 2.7 9.5 3.2 9.85 5.7 10.2 L8.95 10.05 Q10.45 10.05 11.45 9.1 12.35 8.2 12.45 8.5 13.25 10.1 15.5 8.65 16.35 8.65 17.05 8.1 L18.0 6.95 Q18.15 6.45 17.4 5.55 L17.05 4.95 17.2 4.2 17.45 2.65 Q17.25 1.6 16.5 1.0 15.95 0.5 14.7 0.2 L12.7 0.05 Q11.9 -0.05 11.0 -2.25 L10.1 -3.85 8.15 -5.8 Q5.7 -7.25 1.75 -6.5 Z" fill="none" stroke="#a0a0a0" stroke-linecap="round" stroke-linejoin="round" stroke-width="0.25"/>
      <path d="M3.2 -4.7 Q4.35 -3.95 2.4 -2.3 1.05 -1.25 -0.65 -1.1 L-1.95 -1.3 Q-2.7 -1.75 -3.1 -1.85 -3.85 -2.1 -4.4 -0.25 -4.7 0.75 -5.6 1.65 L-6.8 2.7 Q-7.8 3.6 -8.15 3.55 L-8.15 3.45 Q-6.1 2.75 -5.2 0.15 L-4.7 -1.5 Q-4.45 -2.4 -4.5 -2.8 L-5.0 -3.8 -2.8 -4.25 0.05 -4.85 3.2 -4.7" fill="#dddddd" fill-rule="evenodd" stroke="none"/>
      <path d="M-12.25 3.05 Q-12.5 4.05 -13.55 4.6 -15.0 5.45 -14.5 6.0 -13.5 6.75 -13.95 7.0 L-13.95 6.9 -14.25 6.7 -14.95 6.5 -16.5 6.1 Q-17.4 5.4 -17.25 4.05 L-16.6 3.35 -15.55 3.05 -13.6 1.95 Q-12.95 1.75 -12.55 2.1 -12.1 2.45 -12.25 3.05" fill="#dddddd" fill-rule="evenodd" stroke="none"/>
      <path d="M5.6 4.8 Q5.7 4.2 5.3 3.6 4.35 2.25 0.65 2.25 L-1.25 2.55 -0.65 2.3 Q2.1 1.4 4.1 2.25 7.25 3.5 7.75 4.9 8.7 7.4 6.9 8.9 5.9 9.75 4.7 9.75 3.5 9.75 2.5 9.1 1.1 8.4 0.95 7.7 0.7 6.4 2.2 5.95 L4.7 5.65 Q5.45 5.5 5.6 4.8 M-3.7 3.35 L-3.7 3.4 -3.9 3.35 -3.7 3.35" fill="#dddddd" fill-rule="evenodd" stroke="none"/>
      <path d="M5.9 -0.9 Q7.5 -0.8 8.15 -1.2 L9.3 -1.3 10.15 -0.75 11.5 0.6 13.9 1.25 Q15.6 1.55 15.45 2.35 15.2 3.4 13.65 3.9 11.3 4.7 8.75 2.05 7.8 0.85 7.15 0.4 6.35 -0.15 5.0 -0.35 3.1 -0.6 0.05 0.65 -0.45 0.85 -1.8 1.95 L-2.75 2.6 Q-3.45 3.15 -3.6 3.15 L-2.9 2.35 Q-2.45 1.9 -1.75 1.55 L1.25 -0.3 Q2.2 -0.8 3.5 -0.95 L5.9 -0.9" fill="#dddddd" fill-rule="evenodd" stroke="none"/>
      <path d="M-15.35 3.4 Q-15.25 3.8 -16.0 4.45 L-16.5 5.0 -16.7 5.65 Q-16.65 6.05 -15.9 6.2 L-14.8 6.45 Q-14.5 6.5 -14.25 6.7 L-13.95 7.05 -13.95 7.45 Q-14.15 6.8 -16.25 6.5 -17.4 6.3 -17.9 5.9 -18.75 5.15 -18.15 4.2 -17.7 3.45 -16.75 3.15 -15.55 2.8 -15.35 3.4" fill="#b7b7b7" fill-rule="evenodd" stroke="none"/>
      <path d="M6.45 3.0 L7.95 4.6 Q8.5 5.6 8.05 6.95 7.8 7.8 6.75 8.85 6.15 9.45 5.2 9.25 3.95 9.0 3.65 8.2 3.45 7.55 4.7 7.55 7.1 7.55 7.5 6.7 L7.55 5.2 Q7.5 4.5 6.7 3.8 5.65 2.8 4.0 2.4 L1.9 2.0 -0.25 2.15 -0.35 2.15 0.05 2.05 1.95 1.8 Q4.7 1.8 6.45 3.0 M5.6 -1.1 L7.15 -0.9 8.0 -1.8 Q8.65 -2.2 9.45 -1.8 L10.5 -0.8 Q11.0 0.0 10.2 0.35 9.4 0.7 7.0 -0.4 L2.5 -0.6 0.15 0.55 -2.25 2.15 -2.85 2.65 -2.05 2.75 -3.7 3.35 -4.3 3.05 -3.25 2.25 -1.65 1.2 Q0.15 -0.05 1.1 -0.45 L2.45 -0.85 4.0 -1.2 5.6 -1.1" fill="#b7b7b7" fill-rule="evenodd" stroke="none"/>
      <path d="M-5.15 -3.2 L-5.25 -3.95 -4.55 -4.25 -3.0 -4.15 Q-1.85 -4.15 -1.85 -3.45 -1.85 -2.65 -3.05 -2.4 -4.2 -2.3 -4.3 -1.95 L-4.55 -1.1 -4.55 -0.85 -4.65 -0.4 Q-4.75 0.6 -5.3 1.3 L-6.65 2.7 -7.0 2.85 -7.45 3.5 -8.6 3.7 -9.3 3.95 Q-9.1 3.4 -8.0 3.05 L-6.5 1.85 Q-5.7 0.95 -5.35 0.05 L-4.9 -1.4 -4.8 -1.85 -4.85 -2.25 -5.15 -3.2" fill="#b7b7b7" fill-rule="evenodd" stroke="none"/>
    </g>
  </defs>
</svg>
